TCanvas/wtmass.svg

<svg xmlns="http://www.w3.org/2000/svg" viewBox="0 0 1200 800" preserveAspectRatio="none" width="1200" height="800">
 <path d="M0,0H1200V800H0Z" style="fill: white;"></path>
 <g>
  <svg viewBox="0 0 1200 800" preserveAspectRatio="none" x="0" y="0" width="1200" height="800">
   <path d="M0,0H1200V800H0Z" style="fill: white;"></path>
   <g>
    <g transform="translate(192,80)">
     <path d="M0,0H948V640H0Z" style="fill: white; stroke: black; stroke-width: 1;"></path>
     <svg x="0" y="0" overflow="hidden" width="948" height="640" viewBox="0 0 948 640">
      <g>
       <path d="M0,640h142v-241h24v-17h24v-26h23v-24h24v-35h24v-53h23v-53h24v-50h24v-44h24v-11h23v18h24v49h24v69h23v77h24v62h24v57h23v50h24v39h24v35h24v16h23v21h24v11h24v11h23v6h24v7h24v2h23v6h24v2h24v3h24v1h23v1h24v4h24v-2h23v2h24L948,643H0Z" style="stroke-linejoin: miter; stroke: black; stroke-width: 1; fill: #9bc53d;"></path>
      </g>
      <g>
       <path d="M0,640h142v-21h48v-4h47v-4h24v-7h23v-2h24v-7h48v-3h23v3h24v5h24v6h23v5h24v4h24v7h23v4h24v3h24v3h47v3h24v1h47v1h24v2h24v-1h23v1h48v-1h24v1h118L948,643H0Z" style="stroke-linejoin: miter; stroke: black; stroke-width: 1; fill: #fde74c;"></path>
      </g>
      <g>
       <path d="M0,640h142v-12h24v2h24v-3h71v-4h23v-1h24v-4h95v2h24v3h23v1h24v2h24v5h23v1h24v2h24v2h47v2h71v1h71v1h48v-1h95v1h47L948,643H0Z" style="stroke-linejoin: miter; stroke: black; stroke-width: 1; fill: #086788;"></path>
      </g>
      <g>
       <path d="M0,640h142v-9h24v1h24v-2h23v-1h48v-4h47v-5h24v1h24v-1h23v1h24v1h24v2h23v2h24v2h24v4h23v1h24v2h24v2h47v1h71v1h24v1h24v-1h23v1h48v-1h24v1h118L948,643H0Z" style="stroke-linejoin: miter; stroke: black; stroke-width: 1; fill: #e55934;"></path>
      </g>
      <g>
       <path d="M0,640h261v-1h142v1h545L948,643H0Z" style="stroke-linejoin: miter; stroke: black; stroke-width: 1; fill: #5bc0eb;"></path>
      </g>
      <g>
       <path d="M0,640h948L948,643H0Z" style="stroke-linejoin: miter; stroke: black; stroke-width: 1; fill: #fa7921;"></path>
      </g>
      <g>
       <path d="M142,420h24M154,405v30M166,392h24M178,376v31M190,352h24M202,335v34M213,339h24M225,322v34M237,317h24M249,299v36M261,258h24M273,238v39M284,185h24M296,163v43M308,154h24M320,133v43M332,122h24M344,100v45M356,126h24M368,104v45M379,140h24M391,118v44M403,170h24M415,149v42M427,260h24M439,241v39M450,297h24M462,279v37M474,412h24M486,397v30M498,440h24M510,427v27M521,491h24M533,479v24M545,514h24M557,503v23M569,546h24M581,536v19M593,571h24M605,563v16M616,582h24M628,574v15M640,587h24M652,580v15M664,606h24M676,600v12M687,603h24M699,597v12M711,615h24M723,610v10M735,615h24M747,610v10M758,622h24M770,617v9M782,621h24M794,616v9M806,625h24M818,622v7M830,629h24M842,626v7M853,626h24M865,623v7M877,628h24M889,625v7M901,630h24M913,627v6M924,632h24M936,629v6" style="stroke: black; stroke-width: 1;"></path>
       <path d="M150,420a4,4,0,1,0,8,0a4,4,0,1,0,-8,0zM174,392a4,4,0,1,0,8,0a4,4,0,1,0,-8,0zM198,352a4,4,0,1,0,8,0a4,4,0,1,0,-8,0zM221,339a4,4,0,1,0,8,0a4,4,0,1,0,-8,0zM245,317a4,4,0,1,0,8,0a4,4,0,1,0,-8,0zM269,258a4,4,0,1,0,8,0a4,4,0,1,0,-8,0zM292,185a4,4,0,1,0,8,0a4,4,0,1,0,-8,0zM316,154a4,4,0,1,0,8,0a4,4,0,1,0,-8,0zM340,122a4,4,0,1,0,8,0a4,4,0,1,0,-8,0zM364,126a4,4,0,1,0,8,0a4,4,0,1,0,-8,0zM387,140a4,4,0,1,0,8,0a4,4,0,1,0,-8,0zM411,170a4,4,0,1,0,8,0a4,4,0,1,0,-8,0zM435,260a4,4,0,1,0,8,0a4,4,0,1,0,-8,0zM458,297a4,4,0,1,0,8,0a4,4,0,1,0,-8,0zM482,412a4,4,0,1,0,8,0a4,4,0,1,0,-8,0zM506,440a4,4,0,1,0,8,0a4,4,0,1,0,-8,0zM529,491a4,4,0,1,0,8,0a4,4,0,1,0,-8,0zM553,514a4,4,0,1,0,8,0a4,4,0,1,0,-8,0zM577,546a4,4,0,1,0,8,0a4,4,0,1,0,-8,0zM601,571a4,4,0,1,0,8,0a4,4,0,1,0,-8,0zM624,582a4,4,0,1,0,8,0a4,4,0,1,0,-8,0zM648,587a4,4,0,1,0,8,0a4,4,0,1,0,-8,0zM672,606a4,4,0,1,0,8,0a4,4,0,1,0,-8,0zM695,603a4,4,0,1,0,8,0a4,4,0,1,0,-8,0zM719,615a4,4,0,1,0,8,0a4,4,0,1,0,-8,0zM743,615a4,4,0,1,0,8,0a4,4,0,1,0,-8,0zM766,622a4,4,0,1,0,8,0a4,4,0,1,0,-8,0zM790,621a4,4,0,1,0,8,0a4,4,0,1,0,-8,0zM814,625a4,4,0,1,0,8,0a4,4,0,1,0,-8,0zM838,629a4,4,0,1,0,8,0a4,4,0,1,0,-8,0zM861,626a4,4,0,1,0,8,0a4,4,0,1,0,-8,0zM885,628a4,4,0,1,0,8,0a4,4,0,1,0,-8,0zM909,630a4,4,0,1,0,8,0a4,4,0,1,0,-8,0zM932,632a4,4,0,1,0,8,0a4,4,0,1,0,-8,0z" style="stroke: black; fill: black;"></path>
      </g>
     </svg>
     <g>
      <g transform="translate(0,640)">
       <path d="M0,0h948M0,-640h948M0,-24v24m24,-12v12m23,-12v12m24,-12v12m24,-24v24m24,-12v12m23,-12v12m24,-12v12m24,-24v24m23,-12v12m24,-12v12m24,-12v12m23,-24v24m24,-12v12m24,-12v12m24,-12v12m23,-24v24m24,-12v12m24,-12v12m23,-12v12m24,-24v24m24,-12v12m23,-12v12m24,-12v12m24,-24v24m24,-12v12m23,-12v12m24,-12v12m24,-24v24m23,-12v12m24,-12v12m24,-12v12m23,-24v24m24,-12v12m24,-12v12m24,-12v12m23,-24v24m24,-12v12m24,-12v12m23,-12v12m24,-24v24M0,-616v-24m24,12v-12m23,12v-12m24,12v-12m24,24v-24m24,12v-12m23,12v-12m24,12v-12m24,24v-24m23,12v-12m24,12v-12m24,12v-12m23,24v-24m24,12v-12m24,12v-12m24,12v-12m23,24v-24m24,12v-12m24,12v-12m23,12v-12m24,24v-24m24,12v-12m23,12v-12m24,12v-12m24,24v-24m24,12v-12m23,12v-12m24,12v-12m24,24v-24m23,12v-12m24,12v-12m24,12v-12m23,24v-24m24,12v-12m24,12v-12m24,12v-12m23,24v-24m24,12v-12m24,12v-12m23,12v-12m24,24v-24" style="stroke: black; stroke-width: 1;"></path>
       <g font-family="Arial" font-size="25" space="preserve" fill="black" text-anchor="middle">
        <text dy=".8em" transform="translate(0,6)">
         0
        </text>
        <text dy=".8em" transform="translate(95,6)">
         20
        </text>
        <text dy=".8em" transform="translate(190,6)">
         40
        </text>
        <text dy=".8em" transform="translate(284,6)">
         60
        </text>
        <text dy=".8em" transform="translate(379,6)">
         80
        </text>
        <text dy=".8em" transform="translate(474,6)">
         100
        </text>
        <text dy=".8em" transform="translate(569,6)">
         120
        </text>
        <text dy=".8em" transform="translate(664,6)">
         140
        </text>
        <text dy=".8em" transform="translate(758,6)">
         160
        </text>
        <text dy=".8em" transform="translate(853,6)">
         180
        </text>
        <text dy=".8em" transform="translate(948,6)">
         200
        </text>
       </g>
       <g font-family="Arial" font-size="25" space="preserve" transform="translate(948,80)">
        <g transform="translate(-126,8)">
         <text fill="black" font-size="25">
          M
         </text>
         <text fill="black" font-size="15" transform="translate(29,5)">
          T,W
         </text>
         <text fill="black" font-size="25" x="56">
          [GeV]
         </text>
        </g>
       </g>
      </g>
      <g>
       <path d="M0,0v640M948,0v640M36,640h-36m18,-19h-18m18,-20h-18m18,-19h-18m18,-20h-18m36,-19h-36m18,-20h-18m18,-19h-18m18,-20h-18m18,-19h-18m36,-20h-36m18,-19h-18m18,-20h-18m18,-19h-18m18,-19h-18m36,-20h-36m18,-19h-18m18,-20h-18m18,-19h-18m18,-20h-18m36,-19h-36m18,-20h-18m18,-19h-18m18,-20h-18m18,-19h-18m36,-20h-36m18,-19h-18m18,-20h-18m18,-19h-18m18,-19h-18m36,-20h-36m18,-19h-18m18,-20h-18M912,640h36m-18,-19h18m-18,-20h18m-18,-19h18m-18,-20h18m-36,-19h36m-18,-20h18m-18,-19h18m-18,-20h18m-18,-19h18m-36,-20h36m-18,-19h18m-18,-20h18m-18,-19h18m-18,-19h18m-36,-20h36m-18,-19h18m-18,-20h18m-18,-19h18m-18,-20h18m-36,-19h36m-18,-20h18m-18,-19h18m-18,-20h18m-18,-19h18m-36,-20h36m-18,-19h18m-18,-20h18m-18,-19h18m-18,-19h18m-36,-20h36m-18,-19h18m-18,-20h18" style="stroke: black; stroke-width: 1;"></path>
       <g font-family="Arial" font-size="25" space="preserve" fill="black" text-anchor="end">
        <text dy=".4em" transform="translate(-4,640)">
         0
        </text>
        <text dy=".4em" transform="translate(-4,543)">
         100
        </text>
        <text dy=".4em" transform="translate(-4,445)">
         200
        </text>
        <text dy=".4em" transform="translate(-4,348)">
         300
        </text>
        <text dy=".4em" transform="translate(-4,251)">
         400
        </text>
        <text dy=".4em" transform="translate(-4,153)">
         500
        </text>
        <text dy=".4em" transform="translate(-4,56)">
         600
        </text>
       </g>
       <g font-family="Arial" font-size="25" space="preserve" transform="translate(-120,0)">
        <text fill="black" text-anchor="end" dy=".4em" transform=" rotate(270)">
         Events
        </text>
       </g>
      </g>
     </g>
    </g>
    <g transform="translate(180,24)" font-family="Arial" font-size="33" space="preserve" font-weight="bold">
     <text fill="black" text-anchor="middle" dy=".4em" transform="translate(420,20)">
      Transverse Mass of the W Candidate
     </text>
    </g>
   </g>
  </svg>
  <g font-family="Arial" font-size="22" space="preserve" font-weight="bold" font-style="oblique">
   <text fill="black" text-anchor="start" transform="translate(240,96)">
    ATLAS
   </text>
  </g>
  <g font-family="Arial" font-size="22" space="preserve">
   <text fill="black" text-anchor="start" transform="translate(360,96)">
    Open Data
   </text>
  </g>
  <g font-family="Arial" font-size="22" space="preserve">
   <g transform="translate(1029,781)">
    <text fill="black" font-size="22">
     M
    </text>
    <text fill="black" font-size="13" transform="translate(25,4)">
     T,W
    </text>
    <text fill="black" font-size="22" x="49">
     [GeV]
    </text>
   </g>
  </g>
  <g transform="translate(900,80)" font-family="Arial" font-size="18" space="preserve" font-weight="bold">
   <path d="M0,0H180V168H0Z" style="fill: white;"></path>
   <path d="M5,7v18h35v-18z" style="fill: #fa7921; stroke: black; stroke-width: 1;"></path>
   <text fill="black" text-anchor="start" dy=".4em" transform="translate(45,16)">
    Diboson
   </text>
   <path d="M5,30v18h35v-18z" style="fill: #5bc0eb; stroke: black; stroke-width: 1;"></path>
   <text fill="black" text-anchor="start" dy=".4em" transform="translate(45,39)">
    DrellYan
   </text>
   <path d="M5,52v18h35v-18z" style="fill: #e55934; stroke: black; stroke-width: 1;"></path>
   <text fill="black" text-anchor="start" dy=".4em" transform="translate(45,61)">
    W
   </text>
   <path d="M5,75v18h35v-18z" style="fill: #086788; stroke: black; stroke-width: 1;"></path>
   <text fill="black" text-anchor="start" dy=".4em" transform="translate(45,84)">
    Z
   </text>
   <path d="M5,97v18h35v-18z" style="fill: #fde74c; stroke: black; stroke-width: 1;"></path>
   <text fill="black" text-anchor="start" dy=".4em" transform="translate(45,106)">
    stop
   </text>
   <path d="M5,120v18h35v-18z" style="fill: #9bc53d; stroke: black; stroke-width: 1;"></path>
   <text fill="black" text-anchor="start" dy=".4em" transform="translate(45,129)">
    ttbar
   </text>
   <path d="M19,152a4,4,0,1,0,8,0a4,4,0,1,0,-8,0z" style="stroke: black; fill: black;"></path>
   <text fill="black" text-anchor="start" dy=".4em" transform="translate(45,151)">
    Data
   </text>
  </g>
 </g>
</svg>

<svg xmlns="http://www.w3.org/2000/svg" viewBox="0 0 1200 800" preserveAspectRatio="none" width="1200" height="800">
 <path d="M0,0H1200V800H0Z" style="fill: white;"></path>
 <g>
  <svg viewBox="0 0 1200 800" preserveAspectRatio="none" x="0" y="0" width="1200" height="800">
   <path d="M0,0H1200V800H0Z" style="fill: white;"></path>
   <g>
    <g transform="translate(192,80)">
     <path d="M0,0H948V640H0Z" style="fill: white; stroke: black; stroke-width: 1;"></path>
     <svg x="0" y="0" overflow="hidden" width="948" height="640" viewBox="0 0 948 640">
      <g>
       <path d="M0,640h142v-241h24v-17h24v-26h23v-24h24v-35h24v-53h23v-53h24v-50h24v-44h24v-11h23v18h24v49h24v69h23v77h24v62h24v57h23v50h24v39h24v35h24v16h23v21h24v11h24v11h23v6h24v7h24v2h23v6h24v2h24v3h24v1h23v1h24v4h24v-2h23v2h24L948,643H0Z" style="stroke-linejoin: miter; stroke: black; stroke-width: 1; fill: #9bc53d;"></path>
      </g>
      <g>
       <path d="M0,640h142v-21h48v-4h47v-4h24v-7h23v-2h24v-7h48v-3h23v3h24v5h24v6h23v5h24v4h24v7h23v4h24v3h24v3h47v3h24v1h47v1h24v2h24v-1h23v1h48v-1h24v1h118L948,643H0Z" style="stroke-linejoin: miter; stroke: black; stroke-width: 1; fill: #fde74c;"></path>
      </g>
      <g>
       <path d="M0,640h142v-12h24v2h24v-3h71v-4h23v-1h24v-4h95v2h24v3h23v1h24v2h24v5h23v1h24v2h24v2h47v2h71v1h71v1h48v-1h95v1h47L948,643H0Z" style="stroke-linejoin: miter; stroke: black; stroke-width: 1; fill: #086788;"></path>
      </g>
      <g>
       <path d="M0,640h142v-9h24v1h24v-2h23v-1h48v-4h47v-5h24v1h24v-1h23v1h24v1h24v2h23v2h24v2h24v4h23v1h24v2h24v2h47v1h71v1h24v1h24v-1h23v1h48v-1h24v1h118L948,643H0Z" style="stroke-linejoin: miter; stroke: black; stroke-width: 1; fill: #e55934;"></path>
      </g>
      <g>
       <path d="M0,640h261v-1h142v1h545L948,643H0Z" style="stroke-linejoin: miter; stroke: black; stroke-width: 1; fill: #5bc0eb;"></path>
      </g>
      <g>
       <path d="M0,640h948L948,643H0Z" style="stroke-linejoin: miter; stroke: black; stroke-width: 1; fill: #fa7921;"></path>
      </g>
      <g>
       <path d="M142,420h24M154,405v30M166,392h24M178,376v31M190,352h24M202,335v34M213,339h24M225,322v34M237,317h24M249,299v36M261,258h24M273,238v39M284,185h24M296,163v43M308,154h24M320,133v43M332,122h24M344,100v45M356,126h24M368,104v45M379,140h24M391,118v44M403,170h24M415,149v42M427,260h24M439,241v39M450,297h24M462,279v37M474,412h24M486,397v30M498,440h24M510,427v27M521,491h24M533,479v24M545,514h24M557,503v23M569,546h24M581,536v19M593,571h24M605,563v16M616,582h24M628,574v15M640,587h24M652,580v15M664,606h24M676,600v12M687,603h24M699,597v12M711,615h24M723,610v10M735,615h24M747,610v10M758,622h24M770,617v9M782,621h24M794,616v9M806,625h24M818,622v7M830,629h24M842,626v7M853,626h24M865,623v7M877,628h24M889,625v7M901,630h24M913,627v6M924,632h24M936,629v6" style="stroke: black; stroke-width: 1;"></path>
       <path d="M150,420a4,4,0,1,0,8,0a4,4,0,1,0,-8,0zM174,392a4,4,0,1,0,8,0a4,4,0,1,0,-8,0zM198,352a4,4,0,1,0,8,0a4,4,0,1,0,-8,0zM221,339a4,4,0,1,0,8,0a4,4,0,1,0,-8,0zM245,317a4,4,0,1,0,8,0a4,4,0,1,0,-8,0zM269,258a4,4,0,1,0,8,0a4,4,0,1,0,-8,0zM292,185a4,4,0,1,0,8,0a4,4,0,1,0,-8,0zM316,154a4,4,0,1,0,8,0a4,4,0,1,0,-8,0zM340,122a4,4,0,1,0,8,0a4,4,0,1,0,-8,0zM364,126a4,4,0,1,0,8,0a4,4,0,1,0,-8,0zM387,140a4,4,0,1,0,8,0a4,4,0,1,0,-8,0zM411,170a4,4,0,1,0,8,0a4,4,0,1,0,-8,0zM435,260a4,4,0,1,0,8,0a4,4,0,1,0,-8,0zM458,297a4,4,0,1,0,8,0a4,4,0,1,0,-8,0zM482,412a4,4,0,1,0,8,0a4,4,0,1,0,-8,0zM506,440a4,4,0,1,0,8,0a4,4,0,1,0,-8,0zM529,491a4,4,0,1,0,8,0a4,4,0,1,0,-8,0zM553,514a4,4,0,1,0,8,0a4,4,0,1,0,-8,0zM577,546a4,4,0,1,0,8,0a4,4,0,1,0,-8,0zM601,571a4,4,0,1,0,8,0a4,4,0,1,0,-8,0zM624,582a4,4,0,1,0,8,0a4,4,0,1,0,-8,0zM648,587a4,4,0,1,0,8,0a4,4,0,1,0,-8,0zM672,606a4,4,0,1,0,8,0a4,4,0,1,0,-8,0zM695,603a4,4,0,1,0,8,0a4,4,0,1,0,-8,0zM719,615a4,4,0,1,0,8,0a4,4,0,1,0,-8,0zM743,615a4,4,0,1,0,8,0a4,4,0,1,0,-8,0zM766,622a4,4,0,1,0,8,0a4,4,0,1,0,-8,0zM790,621a4,4,0,1,0,8,0a4,4,0,1,0,-8,0zM814,625a4,4,0,1,0,8,0a4,4,0,1,0,-8,0zM838,629a4,4,0,1,0,8,0a4,4,0,1,0,-8,0zM861,626a4,4,0,1,0,8,0a4,4,0,1,0,-8,0zM885,628a4,4,0,1,0,8,0a4,4,0,1,0,-8,0zM909,630a4,4,0,1,0,8,0a4,4,0,1,0,-8,0zM932,632a4,4,0,1,0,8,0a4,4,0,1,0,-8,0z" style="stroke: black; fill: black;"></path>
      </g>
     </svg>
     <g>
      <g transform="translate(0,640)">
       <path d="M0,0h948M0,-640h948M0,-24v24m24,-12v12m23,-12v12m24,-12v12m24,-24v24m24,-12v12m23,-12v12m24,-12v12m24,-24v24m23,-12v12m24,-12v12m24,-12v12m23,-24v24m24,-12v12m24,-12v12m24,-12v12m23,-24v24m24,-12v12m24,-12v12m23,-12v12m24,-24v24m24,-12v12m23,-12v12m24,-12v12m24,-24v24m24,-12v12m23,-12v12m24,-12v12m24,-24v24m23,-12v12m24,-12v12m24,-12v12m23,-24v24m24,-12v12m24,-12v12m24,-12v12m23,-24v24m24,-12v12m24,-12v12m23,-12v12m24,-24v24M0,-616V-640M24,-628V-640M47,-628V-640M71,-628V-640M95,-616V-640M119,-628V-640M142,-628V-640M166,-628V-640M190,-616V-640M213,-628V-640M237,-628V-640M261,-628V-640M284,-616V-640M308,-628V-640M332,-628V-640M356,-628V-640M379,-616V-640M403,-628V-640M427,-628V-640M450,-628V-640M474,-616V-640M498,-628V-640M521,-628V-640M545,-628V-640M569,-616V-640M593,-628V-640M616,-628V-640M640,-628V-640M664,-616V-640M687,-628V-640M711,-628V-640M735,-628V-640M758,-616V-640M782,-628V-640M806,-628V-640M830,-628V-640M853,-616V-640M877,-628V-640M901,-628V-640M924,-628V-640M948,-616V-640" style="stroke: black; stroke-width: 1;"></path>
       <g font-family="Arial" font-size="25" space="preserve" fill="black" text-anchor="middle">
        <text dy=".8em" transform="translate(0,6)">
         0
        </text>
        <text dy=".8em" transform="translate(95,6)">
         20
        </text>
        <text dy=".8em" transform="translate(190,6)">
         40
        </text>
        <text dy=".8em" transform="translate(284,6)">
         60
        </text>
        <text dy=".8em" transform="translate(379,6)">
         80
        </text>
        <text dy=".8em" transform="translate(474,6)">
         100
        </text>
        <text dy=".8em" transform="translate(569,6)">
         120
        </text>
        <text dy=".8em" transform="translate(664,6)">
         140
        </text>
        <text dy=".8em" transform="translate(758,6)">
         160
        </text>
        <text dy=".8em" transform="translate(853,6)">
         180
        </text>
        <text dy=".8em" transform="translate(948,6)">
         200
        </text>
       </g>
       <g font-family="Arial" font-size="25" space="preserve" transform="translate(948,80)">
        <g transform="translate(-126,8)">
         <text fill="black" font-size="25">
          M
         </text>
         <text fill="black" font-size="15" transform="translate(29,5)">
          T,W
         </text>
         <text fill="black" font-size="25" x="56">
          [GeV]
         </text>
        </g>
       </g>
      </g>
      <g>
       <path d="M0,0v640M948,0v640M36,640h-36m18,-19h-18m18,-20h-18m18,-19h-18m18,-20h-18m36,-19h-36m18,-20h-18m18,-19h-18m18,-20h-18m18,-19h-18m36,-20h-36m18,-19h-18m18,-20h-18m18,-19h-18m18,-19h-18m36,-20h-36m18,-19h-18m18,-20h-18m18,-19h-18m18,-20h-18m36,-19h-36m18,-20h-18m18,-19h-18m18,-20h-18m18,-19h-18m36,-20h-36m18,-19h-18m18,-20h-18m18,-19h-18m18,-19h-18m36,-20h-36m18,-19h-18m18,-20h-18M912,640H948M930,621H948M930,601H948M930,582H948M930,562H948M912,543H948M930,523H948M930,504H948M930,484H948M930,465H948M912,445H948M930,426H948M930,406H948M930,387H948M930,368H948M912,348H948M930,329H948M930,309H948M930,290H948M930,270H948M912,251H948M930,231H948M930,212H948M930,192H948M930,173H948M912,153H948M930,134H948M930,114H948M930,95H948M930,76H948M912,56H948M930,37H948M930,17H948" style="stroke: black; stroke-width: 1;"></path>
       <g font-family="Arial" font-size="25" space="preserve" fill="black" text-anchor="end">
        <text dy=".4em" transform="translate(-4,640)">
         0
        </text>
        <text dy=".4em" transform="translate(-4,543)">
         100
        </text>
        <text dy=".4em" transform="translate(-4,445)">
         200
        </text>
        <text dy=".4em" transform="translate(-4,348)">
         300
        </text>
        <text dy=".4em" transform="translate(-4,251)">
         400
        </text>
        <text dy=".4em" transform="translate(-4,153)">
         500
        </text>
        <text dy=".4em" transform="translate(-4,56)">
         600
        </text>
       </g>
       <g font-family="Arial" font-size="25" space="preserve" transform="translate(-120,0)">
        <text fill="black" text-anchor="end" dy=".4em" transform=" rotate(270)">
         Events
        </text>
       </g>
      </g>
     </g>
    </g>
    <g transform="translate(180,24)" font-family="Arial" font-size="33" space="preserve" font-weight="bold">
     <text fill="black" text-anchor="middle" dy=".4em" transform="translate(420,20)">
      Transverse Mass of the W Candidate
     </text>
    </g>
   </g>
  </svg>
  <g font-family="Arial" font-size="22" space="preserve" font-weight="bold" font-style="oblique">
   <text fill="black" text-anchor="start" transform="translate(240,96)">
    ATLAS
   </text>
  </g>
  <g font-family="Arial" font-size="22" space="preserve">
   <text fill="black" text-anchor="start" transform="translate(360,96)">
    Open Data
   </text>
  </g>
  <g font-family="Arial" font-size="22" space="preserve">
   <g transform="translate(1029,781)">
    <text fill="black" font-size="22">
     M
    </text>
    <text fill="black" font-size="13" transform="translate(25,4)">
     T,W
    </text>
    <text fill="black" font-size="22" x="49">
     [GeV]
    </text>
   </g>
  </g>
  <g transform="translate(900,80)" font-family="Arial" font-size="18" space="preserve" font-weight="bold">
   <path d="M0,0H180V168H0Z" style="fill: white;"></path>
   <path d="M5,7v18h35v-18z" style="fill: #fa7921; stroke: black; stroke-width: 1;"></path>
   <text fill="black" text-anchor="start" dy=".4em" transform="translate(45,16)">
    Diboson
   </text>
   <path d="M5,30v18h35v-18z" style="fill: #5bc0eb; stroke: black; stroke-width: 1;"></path>
   <text fill="black" text-anchor="start" dy=".4em" transform="translate(45,39)">
    DrellYan
   </text>
   <path d="M5,52v18h35v-18z" style="fill: #e55934; stroke: black; stroke-width: 1;"></path>
   <text fill="black" text-anchor="start" dy=".4em" transform="translate(45,61)">
    W
   </text>
   <path d="M5,75v18h35v-18z" style="fill: #086788; stroke: black; stroke-width: 1;"></path>
   <text fill="black" text-anchor="start" dy=".4em" transform="translate(45,84)">
    Z
   </text>
   <path d="M5,97v18h35v-18z" style="fill: #fde74c; stroke: black; stroke-width: 1;"></path>
   <text fill="black" text-anchor="start" dy=".4em" transform="translate(45,106)">
    stop
   </text>
   <path d="M5,120v18h35v-18z" style="fill: #9bc53d; stroke: black; stroke-width: 1;"></path>
   <text fill="black" text-anchor="start" dy=".4em" transform="translate(45,129)">
    ttbar
   </text>
   <path d="M19,152a4,4,0,1,0,8,0a4,4,0,1,0,-8,0z" style="stroke: black; fill: black;"></path>
   <text fill="black" text-anchor="start" dy=".4em" transform="translate(45,151)">
    Data
   </text>
  </g>
 </g>
</svg>
